X:90
T: O¹Connell¹s
S: J. O'Brien: "Irish Folk Dance Music"
Z: B.Black
M: 4/4
L: 1/8
R: reel
K: Ador
dc | BGGG DGGG |Bdef gedc |BGGG DGGG |BedB Aedc |
BGGG DGGG | Bdef gfga | bgaf gfed |(3efe dB A2 :|
Bd | e^def e=dBG | (3B^cd ef gedc | BGGG DGGG |\
BedB A2 Bd |
e^def e=dBG | (3B^cd ef gfga | bgaf gfed |\
(3efe dB A2 :|


